src/xmb/monochrome/Nintendo - Nintendo DSi (Digital) (CDN).svg

<svg xmlns="http://www.w3.org/2000/svg" xml:space="preserve" id="svg4618" x="0" y="0" version="1.1" viewBox="0 0 64 64"><style>.st0{fill:#fff}</style><path d="M57 8c0-1.8-1.5-3-3.3-3H10.3C8.5 5 7 6.2 7 8v22h2c-1.1 0-2 .9-2 2v23c0 2.2 1.2 4 3 4h43c1.8 0 4-1.8 4-4V32c0-1.1-.9-2-2-2h2zm-5.5 29c.8 0 1.5.7 1.5 1.5s-.7 1.5-1.5 1.5-1.5-.7-1.5-1.5.7-1.5 1.5-1.5M13 45h-2v-2H9v-2h2v-2h2v2h2v2h-2zm2 10c-.6 0-1-.4-1-1s.4-1 1-1 1 .4 1 1-.4 1-1 1m30 1H19V36h26zM31 32c0-.6.4-1 1-1s1 .4 1 1-.4 1-1 1-1-.4-1-1m3 0c0-.3.2-.5.5-.5s.5.2.5.5-.2.5-.5.5-.5-.2-.5-.5m11-4H19V8h26zm2 13.5c0-.8.7-1.5 1.5-1.5s1.5.7 1.5 1.5-.7 1.5-1.5 1.5-1.5-.7-1.5-1.5M49 56c-.6 0-1-.4-1-1s.4-1 1-1 1 .4 1 1-.4 1-1 1m0-3c-.6 0-1-.4-1-1s.4-1 1-1 1 .4 1 1-.4 1-1 1m2.5-7c-.8 0-1.5-.7-1.5-1.5s.7-1.5 1.5-1.5 1.5.7 1.5 1.5-.7 1.5-1.5 1.5m4.5-4.5c0 .8-.7 1.5-1.5 1.5s-1.5-.7-1.5-1.5.7-1.5 1.5-1.5 1.5.7 1.5 1.5" class="st0"/><path d="M30.1 17.6v-5.2c0-.5.4-.8.8-.8h1.7c.5 0 .8.4.8.8v5.2H36l-4.3 5.2-4.3-5.2zm5.6 6.8H28c-.2 0-.4-.2-.4-.4s.2-.4.4-.4h7.7c.2 0 .4.2.4.4s-.2.4-.4.4m.8-2.6h-.8v.8h-.8v-.8H34V21h.8v-.8h.8v.8h.8v.8z" class="st0"/></svg>

<?xml version="1.0" encoding="utf-8"?>
<!-- Generator: Adobe Illustrator 26.3.1, SVG Export Plug-In . SVG Version: 6.00 Build 0)  -->
<svg version="1.1"
	 id="svg4618" xmlns:svg="http://www.w3.org/2000/svg" xmlns:dc="http://purl.org/dc/elements/1.1/" xmlns:rdf="http://www.w3.org/1999/02/22-rdf-syntax-ns#" xmlns:sodipodi="http://sodipodi.sourceforge.net/DTD/sodipodi-0.dtd" xmlns:inkscape="http://www.inkscape.org/namespaces/inkscape" xmlns:cc="http://creativecommons.org/ns#" inkscape:export-filename="/Users/margetts/Documents/GitHub/Working/monochrome/Nintendo - Nintendo DSi (DLC).png" inkscape:export-ydpi="360"
	 xmlns="http://www.w3.org/2000/svg" xmlns:xlink="http://www.w3.org/1999/xlink" x="0px" y="0px" viewBox="0 0 64 64"
	 style="enable-background:new 0 0 64 64;" xml:space="preserve">
<style type="text/css">
	.st0{fill:#FFFFFF;}
</style>
<sodipodi:namedview  bordercolor="#666666" borderopacity="1" gridtolerance="10" guidetolerance="10" id="namedview4620" inkscape:current-layer="svg4618" inkscape:cx="-35" inkscape:cy="40" inkscape:pageopacity="0" inkscape:pageshadow="2" inkscape:window-height="1005" inkscape:window-maximized="1" inkscape:window-width="1676" inkscape:window-x="4" inkscape:window-y="1" inkscape:zoom="3.8" objecttolerance="10" pagecolor="#808080" showgrid="false">
	</sodipodi:namedview>
<g>
	<path class="st0" d="M57,8c0-1.8-1.5-3-3.3-3H10.3C8.5,5,7,6.2,7,8v22h2c-1.1,0-2,0.9-2,2v23c0,2.2,1.2,4,3,4h43c1.8,0,4-1.8,4-4
		V32c0-1.1-0.9-2-2-2h2V8z M51.5,37c0.8,0,1.5,0.7,1.5,1.5S52.3,40,51.5,40S50,39.3,50,38.5S50.7,37,51.5,37z M13,45h-2v-2H9v-2h2
		v-2h2v2h2v2h-2V45z M15,55c-0.6,0-1-0.4-1-1s0.4-1,1-1s1,0.4,1,1S15.6,55,15,55z M45,56H19V36h26V56z M31,32c0-0.6,0.4-1,1-1
		c0.6,0,1,0.4,1,1c0,0.6-0.4,1-1,1S31,32.6,31,32z M34,32c0-0.3,0.2-0.5,0.5-0.5S35,31.7,35,32s-0.2,0.5-0.5,0.5S34,32.3,34,32z
		 M45,28H19V8h26V28z M47,41.5c0-0.8,0.7-1.5,1.5-1.5s1.5,0.7,1.5,1.5S49.3,43,48.5,43S47,42.3,47,41.5z M49,56c-0.6,0-1-0.4-1-1
		s0.4-1,1-1s1,0.4,1,1S49.6,56,49,56z M49,53c-0.6,0-1-0.4-1-1s0.4-1,1-1s1,0.4,1,1S49.6,53,49,53z M51.5,46c-0.8,0-1.5-0.7-1.5-1.5
		s0.7-1.5,1.5-1.5s1.5,0.7,1.5,1.5S52.3,46,51.5,46z M56,41.5c0,0.8-0.7,1.5-1.5,1.5S53,42.3,53,41.5s0.7-1.5,1.5-1.5
		S56,40.7,56,41.5z"/>
</g>
<g>
	<path class="st0" d="M30.1,17.6v-5.2c0-0.5,0.4-0.8,0.8-0.8h1.7c0.5,0,0.8,0.4,0.8,0.8v5.2H36l-4.3,5.2l-4.3-5.2
		C27.5,17.6,30.1,17.6,30.1,17.6z M35.7,24.4h-7.7c-0.2,0-0.4-0.2-0.4-0.4c0-0.2,0.2-0.4,0.4-0.4h7.7c0.2,0,0.4,0.2,0.4,0.4
		C36.1,24.2,35.9,24.4,35.7,24.4z M36.5,21.8h-0.8v0.8h-0.8v-0.8H34V21h0.8v-0.8h0.8V21h0.8V21.8z"/>
</g>
</svg>
